!! 00000] ST[00
!!!OTL: Ladrangan Bima Kurda
!!!ARE: Asia, SÅdostasien, Indonesion, Java
!! Ethnic Group: NN
!!!YOR: Kunst, J.: Music in Java: ... ???
!!!SCT: C0000
!!!YEM: Copyright 1995, estate of Helmut Schaffrath.
**kern
*ICvox
*Ivox
*M4/4
*k[b-]
*F:
{4a
4a
4a
4e
=1
4a
4a
4a
4e
=2
8a
8a
8e
8a
8a
8b-
8cc
8b-}
=3
{4a
4a
4a
4e
=4
4a
4a
4a
4e
=5
4a
4a
4a
4e}
=6
{4a
8e
4a
8b-
8cc
8b-
=7
2a
4a
4e}
=8
{4a
4a
4a
4e
=9
4a
4a
4a
4e
=10
4a
8e
4a
8b-
8cc
8b-}
=11
{4.a
8a
8cc
8a
8b-
8cc
=12
8b-
8cc
8a
8cc
8b-
8cc
8a
8cc
=13
8b-
8cc
8a
4b-
8b-
8dd
8ee
=14
4a
8e
4a
8b-
8cc
8b-}
=15
{4.a
8a
8cc
8a
8b-
8cc
=16
8b-
8cc
8a
8cc
8b-
8cc
8a
8cc
=17
8b-
8cc
8a
4b-
8b-
8dd
8ee
=18
4a
8e
4a
8b-
8cc
8b-}
=19
{4.a
8a
8cc
8a
8b-
8cc
=20
8b-
8cc
8ee
8ff
4ee
8cc
8b-}
=21
{4.a
8a
8cc
8a
8b-
8cc
=22
8b-
8cc
8ee
8ff
4ee
8cc
8b-}
=23
{8a
8b-
8f
8e
8e
8f
8a
8b-
=24
8a
8cc
8b-
8a
8b-
8f
8a
8f}
=25
{8e
8b-
8a
8b-
8cc
8b-
8a
8f
=26
8e
8d#
8e
8d#
8b-
8a
8f
8b-}
=27
{8a
8b-
8f
8e
8e
8f
8a
8b-
=28
8a
8cc
8b-
8a
8b-
8f
8a
8f}
=29
{8e
8b-
8a
8b-
8cc
8b-
8a
8f
=30
8e
8d#
8e
8d#
8b-
8a
8f
8b-}
=31
{4a
4a
4a
4e
=32
4a
4a
4a
4e
=33
4a
4a
4a
4e}
=34
{4a
8e
4a
8b-
8cc
8b-
=35
1a}
==
!!!AGN: Nuclear Melody
!! Pelog Patet Barang.
!!    Entnommen aus Lehrerband "Musik hîren-machen-verstehen"
!!!ONB: ESAC (Essen Associative Code) Database: PELOG1
!!!AMT: simple quadruple
!!!AIN: vox
!!!EED: Helmut Schaffrath
!!!EEV: 1.0
*-
